X:0199
T:Sailor's Rant.
M:6/8
L:1/8
Q:3/8=120
I: :: ::
Z:Jack Campin * www.campin.me.uk * 2009
K:G
g3 dBd|ege dBd|gfe dcB |ABG FED|
g3 dBd|ege fga|gfe Ad^c|d3  D3:|
d3 BdB|c3  afd|c3  AdA |B3  gdc|
B3 GBG|ABc def|gfe dBd |G3  d3:|

